X:1
T:Hear the Voice and Prayer
T:John Larkin Hopkins (1819 - 1873) The Musical Times, no. 213
T:Hear the Voice and Prayer
T:Copyright © 2016 by The Choral Public Domain Library. Edition may be freely distributed, duplicated, performed or recorded.
T:Copyright © 2016 by The Choral Public Domain Library. Edition may be freely distributed, duplicated, performed or recorded.
T:Copyright © 2016 by The Choral Public Domain Library. Edition may be freely distributed, duplicated, performed or recorded.
T:Copyright © 2016 by The Choral Public Domain Library. Edition may be freely distributed, duplicated, performed or recorded.
T:Copyright © 2016 by The Choral Public Domain Library. Edition may be freely distributed, duplicated, performed or recorded.
C:John Larkin Hopkins
C:(1819 - 1873)
C:The Musical Times, no. 213
Z:Copyright © 2016 by The Choral Public Domain Library. Edition may be freely distributed, duplicated, performed or recorded.
%%score [ 1 2 3 4 ]
L:1/8
Q:1/2=64
M:2/2
K:F
V:1 treble nm="Soprano" snm="S."
V:2 treble nm="Alto" snm="A."
V:3 treble-8 transpose=-12 nm="Tenor" snm="T."
V:4 bass nm="Bass" snm="B."
V:1
!p! A4 A4 | G4 G4 |!<(! (F2 G2) A2!<)! =B2 | c4 c4 | G4 G4 | B6 B2 | A4 A2 d2 | d4 ^c4 | d4 B4 | %9
w: Hear the|voice and|prayer * of Thy|ser- vants,|hear the|voice and|prayer of Thy|ser- vants|which they|
 G4 (A2 B2) | A4 A2 A2 | A8 |!mf! A4 A4 | c4 c2 c2 | (c4 =B4) | c4 z4 | z8 | z4 F4 | F4 (B2 A2) | %19
w: make be- *|fore Thee this|day:|that Thine|eyes may be|o- *|pen||to-|wards this _|
 A4 z4 | z8 | z4 G4- | G4 A4 | B4 z4 | z4!mf! F4 | F2 G2 A2 =B2 | c4 z4 | z4 f4 | e2 d2 ^c2 A2 | %29
w: house||day|_ and|night,|e-|ver to- wards this|place,|ev-|er to- wards this|
 d6"^dim." A2 | B4 A2 G2 | F4 F4 | G4"^cresc." G2 G2 | A4!f! A4 | =B4 B2 B2 | c8- |"^dim." c8 | %37
w: place, of|which Thou hast|said: my|name shall be|there, my|name shall be|there.|_|
!p! A4 A2 A2 | G4 F2 E2 |!<(! (F2 G2) A2!<)! =B2 | c4 c2 c2 | d8 | c4 c4 | c8 | c4 F4 | G8 | %46
w: And when Thou|hear- est have|mer- * cy up-|on them, have|mer-|cy up-|on|them, have|mer-|
 F4 E4 | F8 | F8 |] %49
w: cy up-|on|them.|
V:2
!p! F4 F4 | F4 E4 |!<(! F4 F2!<)! F2 | F4 E4 | _E4 E4 | D6 G2 | E4 D2 F2 | E4 E4 | G4 G4 | D4 F4 | %10
w: Hear the|voice and|prayer of Thy|ser- vants,|hear the|voice and|prayer of Thy|ser- vants|which they|make be-|
 F4 E2 E2 | F8 |!mf! F4 C4 | G4 F2 E2 | D8 | E4!p! C4 | C4 (D2 E2) | F4 C4 | (C2 D2) E4 | F4 C4- | %20
w: fore Thee this|day:|that Thine|eyes may be|o-|pen to-|wards this _|house, to-|wards _ this|house day|
 C4 D4 | C4 _E4- | E4 C4 | D4 z4 | z8 | z4!mf! F4 | E2 D2 C2 B,2 | A,4 A4 | G2 F2 E2 A2 | %29
w: _ and|night, day|_ and|night,||e-|ver to- wards this|place, ev-|er to- wards this|
 F6"^dim." F2 | G4 E2 E2 | D4 D4 | D4"^cresc." D2 D2 | ^C4!f! D4 | D4 D2 D2 | (E6 C2 | %36
w: place, of|which Thou hast|said: my|name shall be|there, my|name shall be|there. _|
"^dim." D4 E4) |!p! F4 F2 F2 | (E2 D2) C2 B,2 |!<(! A,4 F2!<)! F2 | E4 E2 E2 | F8 | F4 A4 | G8 | %44
w: _ _|And when Thou|hear- * est have|mer- cy up-|on them, have|mer-|cy up-|on|
 F4 D4 | D8 | C4 C4 | C8 | C8 |] %49
w: them. have|mer-|cy up-|on|them.|
V:3
!p! c4 c4 | c4 (c2 B2) |!<(! (A2 G2) F2!<)! F2 | G4 G4 | c4 c4 | B6 d2 | ^c4 d2 A2 | A4 A4 | %8
w: Hear the|voice and *|prayer * of Thy|ser- vants,|hear the|voice and|prayer of Thy|ser- vants|
 B4 d4 | d4 d4 | d4 d2 ^c2 | d8 |!mf! =c4 c4 | c4 c2 =B2 | (A4 G4) | G4!p! c4 | c4 _B4 | A4 c4 | %18
w: which they|make be-|fore Thee this|day:|that Thine|eyes may be|o- *|pen to-|wards this|house, to-|
 c4 c4 | c4 A4- | A4 B4 | A4 c4- | c4 F4 |!mf! B4 f4 | =e2 d2 c2 B2 | (A2 G2) (F2 G2) | %26
w: wards this|house day|_ and|night, day|_ and|night, e-|ver to- wards this|place, _ e- *|
 A2 B2 A2 G2 | (F2 G2) (A2 =B2) | ^c2 d2 e2 c2 | d6"^dim." d2 | d4 ^c2 c2 | d4 A4 | %32
w: ver to- wards this|place, _ ev- *|er to- wards this|place, of|which Thou hast|said: my|
 B4"^cresc." D2 D2 | E4!f! F4 | G4 G2 G2 | (G6 E2 |"^dim." F4 G4) |!p! A4 c2 c2 | (c2 B2) A2 G2 | %39
w: name shall be|there, my|name shall be|there. _|_ _|And when Thou|hear- * est have|
!<(! F4 F2!<)! F2 | G4 G2 G2 | B8 | A4 f4 | e8 | f4 A4 | B8 | (A2 G2) (c2 B2) | B8 | A8 |] %49
w: mer- cy up-|on them, have|mer-|cy up-|on|them, have|mer-|cy _ up- *|on|them.|
V:4
!p! F,4 F,4 | C,4 C,4 |!<(! F,4 F,2!<)! D,2 | C,4 C,4 | C4 C4 | G,6 G,2 | (A,2 G,2) F,2 D,2 | %7
w: Hear the|voice and|prayer of Thy|ser- vants,|hear the|voice and|prayer _ of Thy|
 A,4 A,4 | G,4 G,4 | B,4 (A,2 G,2) | A,4 A,,2 A,,2 | D,8 |!mf! F,4 F,4 | E,4 A,2 G,2 | (F,4 G,4) | %15
w: ser- vants|which they|make be- *|fore Thee this|day:|that Thine|eyes may be|o- *|
 C,4 z4 | z8 | z4!p! A,4 | A,4 G,4 | F,4 F,4- | F,4 B,,4 | F,4 z4 | z8 |!mf! z4 D4 | %24
w: pen||to-|wards this|house day|_ and|night,||e-|
 C2 B,2 A,2 G,2 | (F,2 E,2) D,4 | C,8 | D,8 | A,,6 A,2 | B,6"^dim." A,2 | G,4 A,2 A,2 | D,4 D,4 | %32
w: ver to- wards this|place, _ e-|ver|to-|wards this|place, of|which Thou hast|said: my|
 B,,4"^cresc." B,,2 B,,2 | A,,4!f! D,4 | G,4 G,,2 G,,2 | C,8- |"^dim." C,8 |!p! F,4 F,2 F,2 | %38
w: name shall be|there, my|name shall be|there.|_|And when Thou|
 C,4 C,2 C,2 |!<(! D,4 D,2!<)! D,2 | C,4 C,2 C,2 | B,,8 | F,4 F,4 | B,8 | A,4 D,4 | B,,8 | %46
w: hear- est have|mer- cy up-|on them, have|mer-|cy up-|on|them, have|mer-|
 C,4 C,4 | [F,,F,]8 | [F,,F,]8 |] %49
w: cy up-|on|them.|

